X: 3
T: Walking Down Sheepscar Street
R: jig
M: 6/8
L: 1/8
K: Cmaj
~G3 GEG|ABc dB/c/d|ec/c/d fed|edc dcA|
~G3 GEG|ABc dB/c/d|ec/c/d fed|1 edB cBA:|2 edB cde||
|:gee cde|fed edc|~d3 dcd|egg fed|
fge cde|fed edc|~d3 dcd|1 edB cde:|2 edB cBA||

